public/dist/images/ico-vk.svg

<?xml version="1.0" encoding="UTF-8" standalone="no"?>
<svg width="51px" height="51px" viewBox="0 0 51 51" version="1.1" xmlns="http://www.w3.org/2000/svg" xmlns:xlink="http://www.w3.org/1999/xlink" xmlns:sketch="http://www.bohemiancoding.com/sketch/ns">
    <!-- Generator: Sketch 3.2.2 (9983) - http://www.bohemiancoding.com/sketch -->
    <title>Path 137 + вк</title>
    <desc>Created with Sketch.</desc>
    <defs>
        <path d="M17.6878916,33.4414813 L17.6878916,16.3720584 L18.0305891,16.3720584 C21.3241584,16.3720584 24.6176638,16.3685952 27.9112969,16.3738204 C29.1229181,16.3757647 30.3095418,16.5141122 31.3589333,17.1566353 C32.8241661,18.053798 33.4915781,19.3592591 33.3490532,20.9954297 C33.2133516,22.5530393 32.3422597,23.6397691 30.8066891,24.2245714 C30.7193248,24.2578671 30.6348302,24.2977248 30.5212566,24.3463318 C30.9150336,24.4837072 31.2887868,24.5954424 31.6469166,24.7421138 C33.3111103,25.4238263 34.1373722,26.648539 34.2008229,28.3596251 C34.2686737,30.1902842 33.5163207,31.6158652 31.8815247,32.597604 C31.2380901,32.9840292 30.4994475,33.0836734 29.7663528,33.2014845 C28.0816253,33.4722252 26.3830598,33.4475572 24.6842392,33.4429395 C22.4743696,33.4369852 20.2644999,33.4414813 18.0546302,33.4414813 L17.6878916,33.4414813 L17.6878916,33.4414813 Z M23.1917004,30.0585069 C24.3189721,30.0585069 25.41043,30.0710044 26.5012448,30.0509104 C26.8275569,30.0449067 27.163128,29.9810103 27.4753588,29.8861765 C28.2398615,29.6539317 28.6833245,29.0154575 28.6550334,28.2496194 C28.6261637,27.4660765 28.1597463,26.9136144 27.3362824,26.7294604 C27.0162071,26.6579062 26.6829508,26.6109182 26.3549026,26.6060785 C25.3073603,26.5907017 24.2594965,26.6003811 23.1917004,26.6003811 L23.1917004,30.0585069 L23.1917004,30.0585069 Z M23.3812139,22.5858459 C24.1785761,22.5864807 24.9761805,22.5960024 25.7731793,22.5796713 C26.0521501,22.5739582 26.3353605,22.5249649 26.6062759,22.4579091 C27.0162527,22.3564599 27.3234476,22.1180138 27.4962447,21.7387046 C27.9701801,20.6987059 27.3924938,19.6900998 26.2105323,19.5910743 C25.3387941,19.518017 24.4578497,19.5439853 23.5810239,19.5266731 C23.4545604,19.5241917 23.3280363,19.5263269 23.1917004,19.5263269 L23.1917004,22.56888 C23.2651679,22.5757472 23.3231909,22.5857882 23.3812139,22.5858459 Z" id="path-1"></path>
    </defs>
    <g id="Welcome" stroke="none" stroke-width="1" fill="none" fill-rule="evenodd" sketch:type="MSPage">
        <g id="Home-4" sketch:type="MSArtboardGroup" transform="translate(-1087.000000, -2530.000000)">
            <g id="подвал" sketch:type="MSLayerGroup" transform="translate(57.000000, 2504.000000)">
                <g id="сети" transform="translate(807.000000, 26.000000)">
                    <g id="Path-137-+-вк" transform="translate(223.000000, 1.000000)">
                        <path d="M16.7187073,0.99252613 C26.6413889,0.144244088 37.5359582,-2.0304844 45.9280207,8.37189024 C54.3200833,18.7742649 49.9001435,42.9353605 37.7841292,46.0112449 C25.6681149,49.0871294 11.9147263,53.5975071 6.15133561,46.0388314 C0.387944881,38.4801556 -0.914890309,24.2171394 1.53272269,15.6294144 C3.9803357,7.04168927 6.7960257,1.84080817 16.7187073,0.99252613 Z" id="Path-137" fill="#5C92CD" sketch:type="MSShapeGroup" transform="translate(25.280084, 25.000000) scale(1, -1) translate(-25.280084, -25.000000) "></path>
                        <g id="вк">
                            <use fill="#FFFFFF" fill-rule="evenodd" sketch:type="MSShapeGroup" xlink:href="#path-1"></use>
                            <use fill="none" xlink:href="#path-1"></use>
                        </g>
                    </g>
                </g>
            </g>
        </g>
    </g>
</svg>

<svg width="51" height="51" viewBox="0 0 51 51" xmlns="http://www.w3.org/2000/svg" xmlns:xlink="http://www.w3.org/1999/xlink"><title>Path 137 + вк</title><desc>Created with Sketch.</desc><defs><path d="M17.688 33.44V16.373h.343c3.294 0 6.588-.003 9.88.002 1.213.002 2.4.14 3.45.783 1.464.897 2.132 2.202 1.99 3.838-.137 1.558-1.008 2.645-2.543 3.23-.088.033-.172.073-.286.12.395.14.77.25 1.127.397 1.664.682 2.49 1.907 2.554 3.618.07 1.83-.684 3.256-2.318 4.238-.644.386-1.383.486-2.116.603-1.684.272-3.383.248-5.082.243-2.21-.006-4.42-.002-6.63-.002h-.366zm5.504-3.38c1.127 0 2.218.01 3.31-.01.326-.005.66-.07.973-.164.765-.232 1.208-.87 1.18-1.636-.03-.784-.495-1.336-1.32-1.52-.32-.072-.652-.12-.98-.124-1.048-.015-2.096-.006-3.163-.006v3.46zm.19-7.474c.797 0 1.594.01 2.39-.006.28-.006.563-.055.834-.122.41-.102.717-.34.89-.72.474-1.04-.104-2.048-1.285-2.147-.87-.072-1.752-.046-2.63-.063-.125-.003-.252 0-.388 0v3.042c.073.006.13.016.19.016z" id="a"/></defs><g fill="none"><path d="M16.72 50.007c9.92.85 20.816 3.023 29.208-7.38C54.32 32.228 49.9 8.066 37.784 4.99 25.668 1.912 11.914-2.6 6.15 4.96.39 12.52-.914 26.784 1.534 35.37 3.98 43.96 6.796 49.16 16.72 50.008z" fill="#5C92CD"/><g transform="translate(0 1)"><use fill="#fff" xlink:href="#a"/><use xlink:href="#a"/></g></g></svg>
